icon_installer/data/icons/scalable/actions/show-cloud-disabled-symbolic.svg

<?xml version="1.0" encoding="UTF-8"?>
<svg height="16px" viewBox="0 0 16 16" width="16px" xmlns="http://www.w3.org/2000/svg">
    <g fill="#222222">
        <path d="m 10 3 c -1.5625 0.003906 -2.980469 0.914062 -3.628906 2.332031 c -0.425782 -0.214843 -0.894532 -0.332031 -1.371094 -0.332031 c -0.308594 0.007812 -0.613281 0.058594 -0.90625 0.160156 l 8.84375 8.839844 h 0.0625 c 1.65625 0 3 -1.34375 3 -3 c 0 -1.332031 -0.882812 -2.503906 -2.160156 -2.875 c 0.105468 -0.367188 0.160156 -0.746094 0.160156 -1.125 c 0 -2.210938 -1.789062 -4 -4 -4 z m -7.203125 2.984375 c -0.507813 0.550781 -0.792969 1.269531 -0.796875 2.015625 c 0 0.347656 0.0625 0.695312 0.183594 1.023438 c -1.25 0.160156 -2.183594 1.21875 -2.183594 2.476562 c 0 1.378906 1.121094 2.5 2.5 2.5 h 8.3125 z m 0 0"/>
        <path d="m 1.519531 0.460938 l -1.0625 1.0625 l 14 14 l 1.0625 -1.0625 z m 0 0"/>
    </g>
</svg>

<svg xmlns="http://www.w3.org/2000/svg" width="16" height="16"><g fill="#222"><path d="M10 3a4 4 0 0 0-3.629 2.332A3.046 3.046 0 0 0 5 5a2.988 2.988 0 0 0-.906.16L12.937 14H13a2.996 2.996 0 0 0 .84-5.875A3.998 3.998 0 0 0 10 3zM2.797 5.984A2.999 2.999 0 0 0 2 8c0 .348.063.695.184 1.023A2.496 2.496 0 0 0 0 11.5C0 12.879 1.121 14 2.5 14h8.313zm0 0"/><path d="M1.52.46.457 1.524l14 14 1.063-1.062zm0 0"/></g></svg>
